icon/pk/milk.svg

<svg viewBox="0 0 48 48" fill="none" xmlns="http://www.w3.org/2000/svg" height="1em" width="1em">
  <path d="M12 19.5736C12 19.1988 12.1053 18.8315 12.304 18.5136L17 11H31L35.696 18.5136C35.8947 18.8315 36 19.1988 36 19.5736V42C36 43.1046 35.1046 44 34 44H14C12.8954 44 12 43.1046 12 42V19.5736Z" fill="#2F88FF" stroke="black" stroke-width="4" stroke-linecap="round" stroke-linejoin="round"/>
  <path d="M19 33V24L24 30L29 24V33" stroke="white" stroke-width="4" stroke-linecap="round" stroke-linejoin="round"/>
  <path d="M17 4H31V11H17V4Z" stroke="black" stroke-width="4" stroke-linecap="round" stroke-linejoin="round"/>
</svg>

<svg width="48" height="48" fill="none" xmlns="http://www.w3.org/2000/svg"><path d="M12 19.574a2 2 0 0 1 .304-1.06L17 11h14l4.696 7.514a2 2 0 0 1 .304 1.06V42a2 2 0 0 1-2 2H14a2 2 0 0 1-2-2V19.574Z" fill="#2F88FF" stroke="#000" stroke-width="4" stroke-linecap="round" stroke-linejoin="round"/><path d="M19 33v-9l5 6 5-6v9" stroke="#fff" stroke-width="4" stroke-linecap="round" stroke-linejoin="round"/><path d="M17 4h14v7H17V4Z" stroke="#000" stroke-width="4" stroke-linecap="round" stroke-linejoin="round"/></svg>
